assets/img/lamp.svg

<svg width="1465" height="662" fill="none" xmlns="http://www.w3.org/2000/svg"><path d="M1259.72 102.681c11.28-2.158 18.86 11.238 11.19 19.793l-21.6 24.114a12.073 12.073 0 00-2.6 4.72l-33.78 118.616c-2.8 9.827-15.81 11.884-21.5 3.401L1090.5 122.93c-5.53-8.247.78-19.262 10.69-18.665l112.78 6.793c.99.06 1.99-.004 2.97-.192l42.78-8.185z" fill="#BB86FC"/><path d="M1248 120.016l113.02 170.645V661.5" stroke="#BB86FC" stroke-width="18"/></svg>

<svg width="1465" height="662" viewBox="0 0 1465 662" fill="none" xmlns="http://www.w3.org/2000/svg">
<path d="M1259.72 102.681C1271 100.523 1278.58 113.919 1270.91 122.474L1249.31 146.588C1248.1 147.944 1247.21 149.558 1246.71 151.308L1212.93 269.924C1210.13 279.751 1197.12 281.808 1191.43 273.325L1090.5 122.93C1084.97 114.683 1091.28 103.668 1101.19 104.265L1213.97 111.058C1214.96 111.118 1215.96 111.054 1216.94 110.866L1259.72 102.681Z" fill="#BB86FC"/>
<path d="M1248 120.016L1361.02 290.661L1361.02 661.5" stroke="#BB86FC" stroke-width="18"/>
</svg>
